X:13733
T:Quadrille,A. JMT032
M:6/8
L:1/8
Q:110
S:J.Moore,Tyneside,1841.(24b)
R:Quadrille
O:England
A:Northumbria
Z:C.G.P
K:D
a|aef df-e|A3ABc|def gab|^g3a2a|aef dfe|!A3ABc|dfb aef|d3d2:|
|:A|Aeg bag|g3f2f|!fed dcB|BA^GA2A|Aeg bag|g3f2d|d>cB BA^G|A3a2:|]
